storage/app/icons/phosphoricons/regular/list-numbers.svg

<svg xmlns="http://www.w3.org/2000/svg" fill="currentColor" viewBox="0 0 256 256"><path d="M224 128a8 8 0 0 1-8 8H104a8 8 0 0 1 0-16h112a8 8 0 0 1 8 8M104 72h112a8 8 0 0 0 0-16H104a8 8 0 0 0 0 16m112 112H104a8 8 0 0 0 0 16h112a8 8 0 0 0 0-16M43.58 55.16 48 52.94V104a8 8 0 0 0 16 0V40a8 8 0 0 0-11.58-7.16l-16 8a8 8 0 0 0 7.16 14.32m36.19 101.56a23.73 23.73 0 0 0-9.6-15.95 24.86 24.86 0 0 0-34.11 4.7 23.6 23.6 0 0 0-3.57 6.46 8 8 0 1 0 15 5.47 7.8 7.8 0 0 1 1.18-2.13 8.76 8.76 0 0 1 12-1.59 7.9 7.9 0 0 1 3.26 5.32 7.64 7.64 0 0 1-1.57 5.78 1 1 0 0 0-.08.11l-28.69 38.32A8 8 0 0 0 40 216h32a8 8 0 0 0 0-16H56l19.08-25.53a23.47 23.47 0 0 0 4.69-17.75"/></svg>

<svg xmlns="http://www.w3.org/2000/svg" viewBox="0 0 256 256" fill="currentColor"><path d="M224,128a8,8,0,0,1-8,8H104a8,8,0,0,1,0-16H216A8,8,0,0,1,224,128ZM104,72H216a8,8,0,0,0,0-16H104a8,8,0,0,0,0,16ZM216,184H104a8,8,0,0,0,0,16H216a8,8,0,0,0,0-16ZM43.58,55.16,48,52.94V104a8,8,0,0,0,16,0V40a8,8,0,0,0-11.58-7.16l-16,8a8,8,0,0,0,7.16,14.32ZM79.77,156.72a23.73,23.73,0,0,0-9.6-15.95,24.86,24.86,0,0,0-34.11,4.7,23.63,23.63,0,0,0-3.57,6.46,8,8,0,1,0,15,5.47,7.84,7.84,0,0,1,1.18-2.13,8.76,8.76,0,0,1,12-1.59A7.91,7.91,0,0,1,63.93,159a7.64,7.64,0,0,1-1.57,5.78,1,1,0,0,0-.08.11L33.59,203.21A8,8,0,0,0,40,216H72a8,8,0,0,0,0-16H56l19.08-25.53A23.47,23.47,0,0,0,79.77,156.72Z"/></svg>
